openframe-frontend-core/src/components/icons-v2/brand-logos/linkedin.svg

<svg width="24" height="24" viewBox="0 0 24 24" fill="none" xmlns="http://www.w3.org/2000/svg">
<path d="M20.875 14.9995C20.8747 12.8734 19.107 11.1253 16.9536 11.125C16.6168 11.125 16.2797 11.1845 15.9648 11.2979L15.6587 11.4282L14.5029 12.0068C14.1543 12.181 13.7402 12.1619 13.4087 11.957C13.1128 11.7742 12.9209 11.4661 12.8828 11.125H11.125V20.875H12.8755V16C12.8755 14.2741 14.2741 12.8755 16 12.8755C17.7259 12.8755 19.1245 14.2741 19.1245 16V20.875H20.875V14.9995ZM23.125 21.5005C23.1247 22.3976 22.3976 23.1247 21.5005 23.125H18.5005C17.6032 23.125 16.8748 22.3977 16.8745 21.5005V16C16.8745 15.5168 16.4832 15.1255 16 15.1255C15.5168 15.1255 15.1255 15.5168 15.1255 16V21.5005C15.1252 22.3977 14.3968 23.125 13.4995 23.125H10.4995C9.60244 23.1247 8.87526 22.3976 8.875 21.5005V10.4995C8.87526 9.60244 9.60244 8.87526 10.4995 8.875H13.4995C13.9708 8.875 14.3936 9.07748 14.6904 9.39795C15.3945 9.05329 16.1745 8.875 16.9536 8.875C20.3223 8.87526 23.1247 11.6036 23.125 14.9995V21.5005Z" fill="#888888"/>
<path d="M3.125 20.8745H4.87549V11.1245H3.125V20.8745ZM4.87549 3.99951C4.87522 3.51649 4.4826 3.125 3.99951 3.125C3.51665 3.12526 3.12526 3.51665 3.125 3.99951C3.125 4.4826 3.51649 4.87522 3.99951 4.87549C4.48276 4.87549 4.87549 4.48276 4.87549 3.99951ZM7.12549 21.5C7.12549 22.3975 6.39697 23.1245 5.49951 23.1245H2.49951C1.60227 23.1242 0.875001 22.3973 0.875 21.5V10.5005C0.875 9.60319 1.60227 8.87478 2.49951 8.87451H5.49951C6.39697 8.87451 7.12549 9.60303 7.12549 10.5005V21.5ZM7.12549 3.99951C7.12549 5.7254 5.7254 7.12549 3.99951 7.12549C2.27385 7.12522 0.875 5.72524 0.875 3.99951C0.875264 2.27401 2.27401 0.875264 3.99951 0.875C5.72524 0.875 7.12522 2.27385 7.12549 3.99951Z" fill="#888888"/>
</svg>

<svg xmlns="http://www.w3.org/2000/svg" width="24" height="24" fill="none" viewBox="0 0 24 24">
  <path fill="#888" d="M20.875 15c0-2.127-1.768-3.875-3.921-3.875-.337 0-.674.06-.99.173l-.305.13-1.156.579a1.125 1.125 0 0 1-1.62-.882h-1.758v9.75h1.75V16a3.124 3.124 0 1 1 6.25 0v4.875h1.75v-5.876Zm2.25 6.5c0 .898-.727 1.625-1.625 1.625h-3a1.626 1.626 0 0 1-1.625-1.625V16a.874.874 0 1 0-1.75 0v5.5c0 .898-.728 1.625-1.626 1.625h-3A1.625 1.625 0 0 1 8.875 21.5v-11c0-.898.727-1.625 1.624-1.625h3c.472 0 .895.202 1.191.523a5.165 5.165 0 0 1 2.264-.523c3.368 0 6.17 2.729 6.171 6.124V21.5Zm-20-.625h1.75v-9.75h-1.75v9.75ZM4.875 4a.876.876 0 1 0-1.751.002A.876.876 0 0 0 4.875 4Zm2.25 17.5c0 .898-.728 1.625-1.625 1.625h-3A1.625 1.625 0 0 1 .875 21.5v-11c0-.897.727-1.625 1.625-1.625h3c.897 0 1.625.728 1.625 1.626V21.5Zm0-17.5a3.126 3.126 0 1 1-6.25 0 3.126 3.126 0 0 1 6.25 0Z"/>
</svg>
